X:1
T:The Drunkard's Dream
M:3/4
L:1/2
K:C
 z C/2| E G/2| E G/2| E D/2| C E/2| G G/2| c A/2| G3/2-| G G/2| A F/2|\
 c A/2| G G/2| E E/2| D c/2| B A/2| G3/2-| G C/2| E G/2| E G/2| E D/2|\
 C E/2| G G/2| c A/2| G3/2-| G G/2| A F/2| c A/2| G G/2| E E/2| D F/2|\
 E D/2| C3/2-| C z/2|
